dist/assets/img/services/image-1.svg

<svg width="43" height="42" viewBox="0 0 43 42" fill="none" xmlns="http://www.w3.org/2000/svg">
<path d="M30.8933 19.8566L34.5567 16.1933L25.8067 7.44331L22.1433 11.1066L12.4833 1.46998C10.6633 -0.350023 7.7 -0.350023 5.88 1.46998L1.44667 5.90331C-0.373334 7.72331 -0.373334 10.6866 1.44667 12.5066L11.0833 22.1433L0 33.25V42H8.75L19.8567 30.8933L29.4933 40.53C31.71 42.7466 34.6967 41.93 36.0967 40.53L40.53 36.0966C42.35 34.2766 42.35 31.3133 40.53 29.4933L30.8933 19.8566V19.8566ZM14.42 18.83L4.76 9.19331L9.17 4.75998L12.1333 7.72331L9.38 10.5L12.67 13.79L15.4467 11.0133L18.83 14.3966L14.42 18.83V18.83ZM32.8067 37.24L23.17 27.6033L27.6033 23.17L30.9867 26.5533L28.21 29.33L31.5 32.62L34.2767 29.8433L37.24 32.8066L32.8067 37.24V37.24ZM41.3233 9.42664C41.5396 9.21078 41.7112 8.95437 41.8283 8.6721C41.9454 8.38983 42.0057 8.08724 42.0057 7.78164C42.0057 7.47605 41.9454 7.17346 41.8283 6.89119C41.7112 6.60891 41.5396 6.35251 41.3233 6.13664L35.8633 0.676643C34.7667 -0.420024 33.25 -2.38517e-05 32.5733 0.676643L28.3033 4.94664L37.0533 13.6966L41.3233 9.42664V9.42664Z" fill="white"/>
</svg>

<svg width="43" height="42" fill="none" xmlns="http://www.w3.org/2000/svg"><path d="M30.893 19.857l3.664-3.664-8.75-8.75-3.664 3.664-9.66-9.637a4.675 4.675 0 00-6.603 0L1.447 5.903a4.675 4.675 0 000 6.604l9.636 9.636L0 33.25V42h8.75l11.107-11.107 9.636 9.637c2.217 2.217 5.204 1.4 6.604 0l4.433-4.433a4.676 4.676 0 000-6.604l-9.637-9.636zM14.42 18.83L4.76 9.193 9.17 4.76l2.963 2.963L9.38 10.5l3.29 3.29 2.777-2.777 3.383 3.384-4.41 4.433zm18.387 18.41l-9.637-9.637 4.433-4.433 3.384 3.383-2.777 2.777 3.29 3.29 2.777-2.777 2.963 2.964-4.433 4.433zm8.516-27.813a2.324 2.324 0 000-3.29l-5.46-5.46C34.767-.42 33.25 0 32.573.677l-4.27 4.27 8.75 8.75 4.27-4.27z" fill="#fff"/></svg>
